svgs/sbb_mobile.svg

<svg viewBox="0 0 192 192" xml:space="preserve" style="fill-rule:evenodd;clip-rule:evenodd;stroke-linejoin:round;stroke-miterlimit:2" xmlns="http://www.w3.org/2000/svg"><path d="M301.864 726h-53.379l24.888-24.888a6.002 6.002 0 0 0 0-8.485 6.002 6.002 0 0 0-8.485 0l-35.131 35.13a5.993 5.993 0 0 0-1.497 2.491l-.005.018a5.958 5.958 0 0 0-.253 1.589l-.001.037-.001.036v.149l.001.039.001.029c.013.551.1 1.084.253 1.589l.005.018c.278.911.777 1.77 1.497 2.491l35.131 35.13a6.002 6.002 0 0 0 8.485 0 6.002 6.002 0 0 0 0-8.485L248.485 738h53.379v29.131c0 3.311 2.689 6 6 6 3.312 0 6-2.689 6-6V738h53.651l-24.888 24.888a6.002 6.002 0 0 0 0 8.485 6.002 6.002 0 0 0 8.485 0l35.131-35.13a5.993 5.993 0 0 0 1.497-2.491l.005-.018c.153-.505.24-1.038.253-1.589l.001-.037.001-.036V731.923l-.001-.039-.001-.029a5.958 5.958 0 0 0-.253-1.589l-.005-.018a5.993 5.993 0 0 0-1.497-2.491l-35.131-35.13a6.002 6.002 0 0 0-8.485 0 6.002 6.002 0 0 0 0 8.485L367.515 726h-53.651v-29.131c0-3.311-2.688-6-6-6-3.311 0-6 2.689-6 6V726Z" style="fill-rule:evenodd;clip-rule:evenodd;stroke-linejoin:round;stroke-miterlimit:2" transform="translate(-212 -636)"/></svg>

<?xml version="1.0" encoding="UTF-8" standalone="no"?>
<svg
   width="100%"
   height="100%"
   viewBox="0 0 192 192"
   version="1.1"
   xml:space="preserve"
   style="fill-rule:evenodd;clip-rule:evenodd;stroke-linejoin:round;stroke-miterlimit:2;"
   id="svg4063"
   sodipodi:docname="sbb_mobile.svg"
   inkscape:version="1.2.1 (9c6d41e410, 2022-07-14)"
   xmlns:inkscape="http://www.inkscape.org/namespaces/inkscape"
   xmlns:sodipodi="http://sodipodi.sourceforge.net/DTD/sodipodi-0.dtd"
   xmlns="http://www.w3.org/2000/svg"
   xmlns:svg="http://www.w3.org/2000/svg"><defs
   id="defs4067" /><sodipodi:namedview
   id="namedview4065"
   pagecolor="#ffffff"
   bordercolor="#000000"
   borderopacity="0.25"
   inkscape:showpageshadow="2"
   inkscape:pageopacity="0.0"
   inkscape:pagecheckerboard="0"
   inkscape:deskcolor="#d1d1d1"
   showgrid="false"
   inkscape:zoom="5.3489583"
   inkscape:cx="95.906524"
   inkscape:cy="95.906524"
   inkscape:window-width="1274"
   inkscape:window-height="1303"
   inkscape:window-x="1282"
   inkscape:window-y="36"
   inkscape:window-maximized="0"
   inkscape:current-layer="svg4063" />
    <path
   d="M301.864,726L248.485,726L273.373,701.112C275.715,698.77 275.715,694.968 273.373,692.627C271.032,690.285 267.23,690.285 264.888,692.627L229.757,727.757C229.037,728.478 228.538,729.337 228.26,730.248L228.255,730.266C228.102,730.771 228.015,731.304 228.002,731.855L228.001,731.892L228,731.928L228,731.964L228,732L228,732.039L228,732.077L228.001,732.116L228.002,732.145C228.015,732.696 228.102,733.229 228.255,733.734L228.26,733.752C228.538,734.663 229.037,735.522 229.757,736.243L264.888,771.373C267.23,773.715 271.032,773.715 273.373,771.373C275.715,769.032 275.715,765.23 273.373,762.888L248.485,738L301.864,738L301.864,767.131C301.864,770.442 304.553,773.131 307.864,773.131C311.176,773.131 313.864,770.442 313.864,767.131L313.864,738L367.515,738L342.627,762.888C340.285,765.23 340.285,769.032 342.627,771.373C344.968,773.715 348.77,773.715 351.112,771.373L386.243,736.243C386.963,735.522 387.462,734.663 387.74,733.752L387.745,733.734C387.898,733.229 387.985,732.696 387.998,732.145L387.999,732.108L388,732.072L388,732.037C388,732.025 388,732.012 388,732L388,731.961L388,731.923L387.999,731.884L387.998,731.855C387.985,731.304 387.898,730.771 387.745,730.266L387.74,730.248C387.462,729.337 386.963,728.478 386.243,727.757L351.112,692.627C348.77,690.285 344.968,690.285 342.627,692.627C340.285,694.968 340.285,698.77 342.627,701.112L367.515,726L313.864,726L313.864,696.869C313.864,693.558 311.176,690.869 307.864,690.869C304.553,690.869 301.864,693.558 301.864,696.869L301.864,726Z"
   id="path4057"
   style="fill-rule:evenodd;clip-rule:evenodd;stroke-linejoin:round;stroke-miterlimit:2"
   transform="translate(-212,-636)"
   inkscape:label="sbb_mobile" />
</svg>
